static/assets/images/tokens/usdt.svg

<svg width="256" height="256" viewBox="0 0 256 256" fill="none" xmlns="http://www.w3.org/2000/svg">
<path d="M128 256C198.934 256 256 198.934 256 128C256 57.0662 198.934 0 128 0C57.0662 0 0 57.0662 0 128C0 198.934 57.0662 256 128 256Z" fill="#2DC9A3"/>
<path fill-rule="evenodd" clip-rule="evenodd" d="M145.71 142.978C144.721 143.052 139.61 143.357 128.21 143.357C119.143 143.357 112.705 143.085 110.447 142.978C75.4067 141.437 49.2523 135.341 49.2523 128.042C49.2523 120.743 75.4067 114.655 110.447 113.09V136.906C112.738 137.071 119.3 137.458 128.367 137.458C139.247 137.458 144.696 137.005 145.677 136.915V113.107C180.643 114.664 206.74 120.76 206.74 128.042C206.74 135.325 180.651 141.421 145.677 142.97L145.71 142.978ZM145.71 110.643V89.3314H194.507V56.832H61.6495V89.3314H110.439V110.635C70.7825 112.456 40.96 120.307 40.96 129.715C40.96 139.123 70.7825 146.965 110.439 148.794V217.088H145.701V148.769C185.267 146.949 215.04 139.106 215.04 129.706C215.04 120.307 185.292 112.464 145.701 110.635L145.71 110.643Z" fill="white"/>
</svg>

<svg xmlns="http://www.w3.org/2000/svg" fill="none" viewBox="0 0 256 256"><path fill="#2DC9A3" d="M128 256c70.934 0 128-57.066 128-128S198.934 0 128 0 0 57.066 0 128s57.066 128 128 128"/><path fill="#fff" fill-rule="evenodd" d="M145.71 142.978c-.989.074-6.1.379-17.5.379-9.067 0-15.505-.272-17.763-.379-35.04-1.541-61.195-7.637-61.195-14.936s26.155-13.387 61.195-14.952v23.816c2.291.165 8.853.552 17.92.552 10.88 0 16.329-.453 17.31-.543v-23.808c34.966 1.557 61.063 7.653 61.063 14.935s-26.089 13.379-61.063 14.928zm0-32.335V89.331h48.797V56.832H61.649v32.5h48.79v21.303c-39.656 1.821-69.479 9.672-69.479 19.08s29.822 17.25 69.479 19.079v68.294h35.262v-68.319c39.566-1.82 69.339-9.663 69.339-19.063s-29.748-17.242-69.339-19.071z" clip-rule="evenodd"/></svg>
